teeny/outline/calendar-no-access.svg

<svg width="15" height="15" viewBox="0 0 15 15" fill="none" xmlns="http://www.w3.org/2000/svg">
<path d="M3.5 0V5M11.5 0V5M9.5 6.5L5.5 10.5M1.5 2.5H13.5C14.0523 2.5 14.5 2.94772 14.5 3.5V13.5C14.5 14.0523 14.0523 14.5 13.5 14.5H1.5C0.947716 14.5 0.5 14.0523 0.5 13.5V3.5C0.5 2.94772 0.947715 2.5 1.5 2.5ZM7.5 11.5C5.84315 11.5 4.5 10.1569 4.5 8.5C4.5 6.84315 5.84315 5.5 7.5 5.5C9.15685 5.5 10.5 6.84315 10.5 8.5C10.5 10.1569 9.15685 11.5 7.5 11.5Z" stroke="black"/>
</svg>

<svg viewBox="0 0 15 15" xmlns="http://www.w3.org/2000/svg"><path fill="none" stroke="#000" d="M3.5 0v5m8-5v5m-2 1.5l-4 4m-4-8h12c.55 0 1 .44 1 1v10c0 .55-.45 1-1 1h-12c-.56 0-1-.45-1-1v-10c0-.56.44-1 1-1Zm6 9c-1.66 0-3-1.35-3-3 0-1.66 1.34-3 3-3 1.65 0 3 1.34 3 3 0 1.65-1.35 3-3 3Z"/></svg>
